X: 228
T:Oyster Girl
% Nottingham Music Database
S:EF
M:6/8
K:G
P:A
B/2c/2|"G"ded B2G|"D7"A2F DEF|"G"G2G BGB|"Am"d2c "D7"A3|
"G"ded Bdg|"C"f2e c2e|"G"d2B "D7"cBA|"G"G3 G2:|
P:B
d/2c/2|"G"Bcd Bcd|"C"e2c edc|"D7"ABc ABc|"G"d2B d2B|
"G"ded Bdg|"C"f2e c2e|"G"d2B "D7"cBA|"G"G3 G2:|<end>
<start>
